source/img/icon-menu.svg

<svg width="24" height="14" viewBox="0 0 24 14" fill="none" xmlns="http://www.w3.org/2000/svg">
<path fill-rule="evenodd" clip-rule="evenodd" d="M0.75 14H23.25V13H0.75V14ZM0.75 7.74996H23.25V6.74996H0.75V7.74996ZM0.75 0.5V1.5H23.25V0.5H0.75Z" fill="black"/>
</svg>

<svg viewBox="0 0 24 14" xmlns="http://www.w3.org/2000/svg"><path fill-rule="evenodd" clip-rule="evenodd" d="M.75 14h22.5v-1H.75v1zm0-6.25h22.5v-1H.75v1zM.75.5v1h22.5v-1H.75z" fill="#000"/></svg>
